X: 1
T: Contentment Is Wealth
M: 6/8
L: 1/8
R: jig
K: Edor
F|GFG Eed|BAB EFG|FEF DdB|AFD Def|
gfe edB|BAB dcd|BdB DFA|GED E2:|
f|gbe gbe|geg bag|fdd Add|fdf afd|
gfe edB|BAB dcd|BdB DFA|GED E2:|
